X:17
T:The Duke of Leinster*
R:reel
M:C|
K:G
"The Duke of Leinter (close to Martin Mulvihill version)"
D |: G2BG DGBc | d2eB dBAB | G2BG DGBc | dBAB GEDE |
G2BG DGBc | d2eB  dBAB | GABd edge | dBAB GED2 :||
|: dega b~g3 | agbg ageg | dega bage | dBAB GED2 |
dega b~g3 | agbg agef | g2fg efge |1 dBAB GED2 :|2 dBAB GEDE ||
